src/cmd/sc_graphicfiltersepia.svg

<svg viewBox="0 0 16 16" xmlns="http://www.w3.org/2000/svg"><path d="m2 2v11.28125.71875h5c-.55228 0-1-.44772-1-1s.44772-1 1-1 1 .44772 1 1-.44772 1-1 1h3c-.55228 0-1-.44772-1-1s.44772-1 1-1 1 .44772 1 1-.44772 1-1 1h3c-.55228 0-1-.44772-1-1s.44772-1 1-1 1 .44772 1 1v-1-1-1-8zm12 11c0 .55228-.44772 1-1 1h1zm-11-10h10v6l-2-2-3.34375 3.34375-1.34375-1.34375h-.03125l-3.28125 3.28125zm3 1c-1.10457 0-2 .89543-2 2s.89543 2 2 2 2-.89543 2-2-.89543-2-2-2z" fill="#ab573d"/></svg>

<?xml version="1.0" encoding="UTF-8" standalone="no"?>
<svg
   xmlns:dc="http://purl.org/dc/elements/1.1/"
   xmlns:cc="http://creativecommons.org/ns#"
   xmlns:rdf="http://www.w3.org/1999/02/22-rdf-syntax-ns#"
   xmlns:svg="http://www.w3.org/2000/svg"
   xmlns="http://www.w3.org/2000/svg"
   xmlns:sodipodi="http://sodipodi.sourceforge.net/DTD/sodipodi-0.dtd"
   xmlns:inkscape="http://www.inkscape.org/namespaces/inkscape"
   viewBox="0 0 16 16"
   version="1.1"
   id="svg4"
   sodipodi:docname="sc_graphicfiltersepia.svg"
   inkscape:version="0.92.4 (5da689c313, 2019-01-14)">
  <metadata
     id="metadata10">
    <rdf:RDF>
      <cc:Work
         rdf:about="">
        <dc:format>image/svg+xml</dc:format>
        <dc:type
           rdf:resource="http://purl.org/dc/dcmitype/StillImage" />
      </cc:Work>
    </rdf:RDF>
  </metadata>
  <defs
     id="defs8" />
  <sodipodi:namedview
     pagecolor="#ffffff"
     bordercolor="#666666"
     borderopacity="1"
     objecttolerance="10"
     gridtolerance="10"
     guidetolerance="10"
     inkscape:pageopacity="0"
     inkscape:pageshadow="2"
     inkscape:window-width="1920"
     inkscape:window-height="1011"
     id="namedview6"
     showgrid="true"
     inkscape:zoom="29.5"
     inkscape:cx="3.8145278"
     inkscape:cy="4.2670237"
     inkscape:window-x="0"
     inkscape:window-y="32"
     inkscape:window-maximized="1"
     inkscape:current-layer="svg4">
    <inkscape:grid
       type="xygrid"
       id="grid817" />
  </sodipodi:namedview>
  <path
     d="M 2,2 V 13.28125 14 H 14 V 11 10 2 Z M 3,3 H 13 V 9 L 11,7 7.65625,10.34375 6.3125,9 H 6.28125 L 3,12.28125 Z M 6,4 C 4.89543,4 4,4.89543 4,6 4,7.10457 4.89543,8 6,8 7.10457,8 8,7.10457 8,6 8,4.89543 7.10457,4 6,4 Z"
     id="path2"
     inkscape:connector-curvature="0"
     style="fill:#ab573d"
     sodipodi:nodetypes="cccccccccccccccccsssss" />
</svg>
